styles/4/Numix/128/places/grey-folder-documents.svg

<?xml version="1.0" encoding="UTF-8" standalone="no"?>
<!-- Created with Inkscape (http://www.inkscape.org/) -->

<svg
   xmlns:dc="http://purl.org/dc/elements/1.1/"
   xmlns:cc="http://creativecommons.org/ns#"
   xmlns:rdf="http://www.w3.org/1999/02/22-rdf-syntax-ns#"
   xmlns:svg="http://www.w3.org/2000/svg"
   xmlns="http://www.w3.org/2000/svg"
   xmlns:sodipodi="http://sodipodi.sourceforge.net/DTD/sodipodi-0.dtd"
   xmlns:inkscape="http://www.inkscape.org/namespaces/inkscape"
   width="128"
   height="128"
   id="svg2"
   version="1.1"
   inkscape:version="0.91 r"
   sodipodi:docname="grey-folder-documents.svg"
   inkscape:export-filename="/media/Data/Main/Visuals/Icons/Numix/Desktop/repos/numix-wiki/Gjorgi/Numix-folders/48/New/folder-144.png"
   inkscape:export-xdpi="270"
   inkscape:export-ydpi="270">
  <defs
     id="defs4" />
  <sodipodi:namedview
     id="base"
     pagecolor="#ffffff"
     bordercolor="#666666"
     borderopacity="1.0"
     inkscape:pageopacity="0.0"
     inkscape:pageshadow="2"
     inkscape:zoom="3.2474228"
     inkscape:cx="23.677212"
     inkscape:cy="32.530121"
     inkscape:document-units="px"
     inkscape:current-layer="layer1"
     showgrid="true"
     inkscape:window-width="1280"
     inkscape:window-height="998"
     inkscape:window-x="0"
     inkscape:window-y="0"
     inkscape:window-maximized="1"
     showguides="true"
     inkscape:guide-bbox="true">
    <inkscape:grid
       type="xygrid"
       id="grid2985"
       empspacing="5"
       visible="true"
       enabled="true"
       snapvisiblegridlinesonly="true" />
  </sodipodi:namedview>
  <metadata
     id="metadata7">
    <rdf:RDF>
      <cc:Work
         rdf:about="">
        <dc:format>image/svg+xml</dc:format>
        <dc:type
           rdf:resource="http://purl.org/dc/dcmitype/StillImage" />
        <dc:title />
      </cc:Work>
    </rdf:RDF>
  </metadata>
  <g
     inkscape:label="Layer 1"
     inkscape:groupmode="layer"
     id="layer1"
     transform="translate(0,-924.3622)">
    <path
       style="fill:#757575;fill-opacity:1;stroke:none"
       d="m 16,944.36224 94,0 c 4,0 6,1.9995 6,5.99842 l 0,13.9964 c 0,2.2154 -1.8948,1.9994 -4,1.9994 l -96,0 c -2.1052,0 -4,-1.7836 -4,-3.999 l 0,-17.99522 z"
       id="path3811"
       inkscape:connector-curvature="0"
       sodipodi:nodetypes="csssssscc" />
    <path
       style="opacity:0.02999998;fill:#000000;fill-opacity:1;stroke:none"
       d="m 12,956.36246 0,9.9998 104,0 0,-9.9998 z"
       id="path3807"
       inkscape:connector-curvature="0" />
    <path
       style="fill:#757575;fill-opacity:1;stroke:none"
       d="m 12,952.36226 0,-9.99996 c 0,-4 1.818182,-6 3.636364,-6 l 20.727272,0 c 1.818182,0 3.636364,2 3.636364,6 l 0,9.99996 z"
       id="rect3760"
       inkscape:connector-curvature="0"
       sodipodi:nodetypes="csssscc" />
    <rect
       style="fill:#bdbdbd;fill-opacity:1;stroke:none"
       id="rect2990"
       width="120"
       height="80"
       x="4"
       y="960.36218"
       rx="8"
       ry="6.6666665" />
    <path
       style="opacity:0.1;fill:#ffffff;fill-opacity:1;stroke:none"
       d="m 12,960.36226 c -4.432,0 -8,2.99416 -8,6.6875 l 0,4 c 0,-3.69334 3.568,-6.6875 8,-6.6875 l 104,0 c 4.432,0 8,2.99416 8,6.6875 l 0,-4 c 0,-3.69334 -3.568,-6.6875 -8,-6.6875 l -104,0 z"
       id="rect3004"
       inkscape:connector-curvature="0" />
    <path
       style="opacity:0.05;fill:#000000;fill-opacity:1;stroke:none"
       d="m 40,944.36226 0,4 4,0 66,0 c 4,0 6,2.001 6,6 l 0,-4 c 0,-3.99892 -2,-6 -6,-6 l -66,0 z"
       id="path3781"
       inkscape:connector-curvature="0"
       sodipodi:nodetypes="cccscsscc" />
    <path
       style="opacity:0.05;fill:#000000;fill-opacity:1;stroke:none"
       d="m 15.625,936.36226 c -1.818182,0 -3.625,2 -3.625,6 l 0,4 c 0,-4 1.806818,-6 3.625,-6 l 20.75,0 c 1.818182,0 3.625,2 3.625,6 l 0,-4 c 0,-4 -1.806818,-6 -3.625,-6 l -20.75,0 z"
       id="path3801"
       inkscape:connector-curvature="0" />
    <path
       style="opacity:1.0;fill:#7f7f7f;fill-opacity:1;stroke:none"
       d="M 48 48 C 43.568 48 40 51.568 40 56 L 40 96 C 40 100.432 43.568 104 48 104 L 80 104 C 84.432 104 88 100.432 88 96 L 88 68 L 68 48 L 48 48 z M 48 56 L 68 56 L 68 68 L 80 68 L 80 96 L 48 96 L 48 56 z M 53 72 C 52.446 72 52 72.446 52 73 L 52 75 C 52 75.554 52.446 76 53 76 L 67 76 C 67.554 76 68 75.554 68 75 L 68 73 C 68 72.446 67.554 72 67 72 L 53 72 z M 53 80 C 52.446 80 52 80.446 52 81 L 52 83 C 52 83.554 52.446 84 53 84 L 75 84 C 75.554 84 76 83.554 76 83 L 76 81 C 76 80.446 75.554 80 75 80 L 53 80 z M 53 88 C 52.446 88 52 88.446 52 89 L 52 91 C 52 91.554 52.446 92 53 92 L 75 92 C 75.554 92 76 91.554 76 91 L 76 89 C 76 88.446 75.554 88 75 88 L 53 88 z "
       transform="translate(0,924.3622)"
       id="rect2991-3-2" />
  </g>
</svg>

<!-- Created with Inkscape (http://www.inkscape.org/) -->
<svg xmlns="http://www.w3.org/2000/svg" viewBox="0 0 128 128">
 <g transform="translate(0,-924.3622)">
  <path d="m 16 944.36 94 0 c 4 0 6 2 6 5.998 l 0 13.996 c 0 2.215 -1.895 1.999 -4 1.999 l -96 0 c -2.105 0 -4 -1.784 -4 -3.999 l 0 -17.995 z" style="fill:#757575;fill-opacity:1;stroke:none"/>
  <path d="m 12 956.36 0 10 104 0 0 -10 z" style="fill:#000;opacity:0.03;fill-opacity:1;stroke:none"/>
  <path d="m 12 952.36 0 -10 c 0 -4 1.818 -6 3.636 -6 l 20.727 0 c 1.818 0 3.636 2 3.636 6 l 0 10 z" style="fill:#757575;fill-opacity:1;stroke:none"/>
  <rect width="120" height="80" x="4" y="960.36" rx="8" ry="6.667" style="fill:#bdbdbd;fill-opacity:1;stroke:none"/>
  <path d="m 12 960.36 c -4.432 0 -8 2.994 -8 6.688 l 0 4 c 0 -3.693 3.568 -6.688 8 -6.688 l 104 0 c 4.432 0 8 2.994 8 6.688 l 0 -4 c 0 -3.693 -3.568 -6.688 -8 -6.688 l -104 0 z" style="fill:#fff;opacity:0.1;fill-opacity:1;stroke:none"/>
  <path d="m 40 944.36 0 4 4 0 66 0 c 4 0 6 2 6 6 l 0 -4 c 0 -3.999 -2 -6 -6 -6 l -66 0 z" style="fill:#000;opacity:0.05;fill-opacity:1;stroke:none"/>
  <path d="m 15.625 936.36 c -1.818 0 -3.625 2 -3.625 6 l 0 4 c 0 -4 1.807 -6 3.625 -6 l 20.75 0 c 1.818 0 3.625 2 3.625 6 l 0 -4 c 0 -4 -1.807 -6 -3.625 -6 l -20.75 0 z" style="fill:#000;opacity:0.05;fill-opacity:1;stroke:none"/>
  <path d="m 48 48 c -4.432 0 -8 3.568 -8 8 l 0 40 c 0 4.432 3.568 8 8 8 l 32 0 c 4.432 0 8 -3.568 8 -8 l 0 -28 l -20 -20 l -20 0 z m 0 8 l 20 0 l 0 12 l 12 0 l 0 28 l -32 0 l 0 -40 z m 5 16 c -0.554 0 -1 0.446 -1 1 l 0 2 c 0 0.554 0.446 1 1 1 l 14 0 c 0.554 0 1 -0.446 1 -1 l 0 -2 c 0 -0.554 -0.446 -1 -1 -1 l -14 0 z m 0 8 c -0.554 0 -1 0.446 -1 1 l 0 2 c 0 0.554 0.446 1 1 1 l 22 0 c 0.554 0 1 -0.446 1 -1 l 0 -2 c 0 -0.554 -0.446 -1 -1 -1 l -22 0 z m 0 8 c -0.554 0 -1 0.446 -1 1 l 0 2 c 0 0.554 0.446 1 1 1 l 22 0 c 0.554 0 1 -0.446 1 -1 l 0 -2 c 0 -0.554 -0.446 -1 -1 -1 l -22 0 z" transform="translate(0,924.3622)" style="fill:#7f7f7f;opacity:1;fill-opacity:1;stroke:none"/>
 </g>
</svg>
